assets/media/icons/assetsmediaicons/vr-headset.svg

<svg xmlns="http://www.w3.org/2000/svg" width="980pt" height="980pt" viewBox="0 0 24 24"><g fill="#020202"><path d="M547.82 182.87c18.34-1.94 36.72-3.47 55.15-4.2 36.39-.81 72.83-.1 109.1 2.84 28.9 2.43 57.76 6.37 85.9 13.54 17.62 4.61 34.97 10.53 51.22 18.82 8.4 4.28 16.45 9.24 24 14.87 15.3 11.49 28.12 26.3 36.96 43.29 5.11 9.79 8.97 20.2 11.95 30.83 4.57 16.67 6.78 33.87 8.04 51.08 3.59 62.24-4.85 126.22-31.49 183.02-.63 1.3-1.23 2.61-1.85 3.92-.69 1.33-1.37 2.67-2.06 4.01-1.5 2.8-2.99 5.61-4.52 8.39-4.27 7.67-8.94 15.11-14.06 22.23-1.23 1.57-2.45 3.33-2.4 5.42-.41 12.16-1.7 24.25-2.57 36.38l-.37.55c-1.41 15.82-3.11 31.8-7.99 47-7.46 23.5-20.47 44.99-36.42 63.68-32.56 37.91-78.57 64.87-128.36 71.56-14.58 2.03-29.31 1.46-43.98 1.54-50.03.01-100.05 0-150.08.01-9.39.24-18.75-2.1-27.07-6.42-5.25-2.89-10.14-6.46-14.32-10.75-.57.04-1.7.11-2.26.15.37-.56.76-1.1 1.16-1.63-4.14-3.93-7.06-8.89-9.62-13.94-4.29-8.43-5.24-17.95-7.29-27.05-2.84-14.35-5.75-28.69-8.63-43.03-.98-5.27-1.87-10.73-4.76-15.36-3.98-6.94-11.13-11.99-19.02-13.35-7.69-1.63-16.09.86-21.73 6.31-4.27 3.94-6.71 9.54-7.57 15.22-2.34 19.09-4.99 38.15-7.39 57.24-.73 5.8-1.45 11.68-3.58 17.18-4.3 12.32-13.43 22.75-24.82 29.04-7.72 4.03-16.35 6.44-25.09 6.38-54.68 0-109.37.02-164.05-.01-21.79.31-43.29-7.77-60.23-21.34-9.88-8.24-18.45-18.11-24.63-29.43-5.08-9.36-8.74-19.52-10.59-30.02-3.2-19.81-5.4-39.78-7.66-59.72-.83-11.11-2.13-22.19-2.68-33.33-.93-11.24-1.57-22.52-1.94-33.8-1.11-15.99-.68-32.03-1.3-48.04.22-17.34.33-34.71.79-52.06.33-10.6 3.41-21.06 8.97-30.1 4.9-10.64 11.11-20.61 18.05-30.03 10.76-14.1 22.96-27.05 36.26-38.78 23.67-20.72 49.38-39.52 77.8-53.2 5.33-2.54 10.91-4.41 16.49-6.3 2.2-3.15 5.08-5.73 7.54-8.68 10.57-11.79 22.58-22.2 34.88-32.14 5.1-3.9 10.23-7.74 15.48-11.44 12.88-9.07 26.29-17.37 40.04-25.07 4.51-2.49 9.06-4.91 13.66-7.24 1.32-.71 2.65-1.42 3.98-2.13 1.32-.63 2.63-1.28 3.95-1.92 2.03-.99 4.07-1.98 6.1-2.97 4.3-2.07 8.62-4.1 12.96-6.1 5.07-2.29 10.19-4.45 15.31-6.62 1.87-.78 3.76-1.51 5.64-2.3 57.87-23.49 119.06-38.41 181-46m36.06 27.96c-54.69 3.79-108.95 14.17-161.14 31.04-18.11 6.05-36.05 12.63-53.58 20.22-13.53 5.89-26.93 12.11-39.94 19.08-19.26 10.2-37.85 21.67-55.4 34.59-7.93 5.91-15.45 12.33-23.03 18.68 4.69.5 9.41.23 14.12.3 31.67-.06 63.34.12 95-.09 3.12-2.03 5.38-5.23 8.36-7.51 14.82-13.3 31.44-24.44 48.87-34.03 9.66-5.2 19.56-9.95 29.66-14.23 9.54-4.05 19.25-7.68 29.06-11.01 24.77-8.41 50.27-14.62 76.02-19.2 36.64-6.43 73.84-9.8 111.06-9.5 45.02.05 90.6 3.09 134.02 15.78 6.02 1.88 12.02 3.83 17.88 6.18 4.87 2.03 9.8 3.97 14.44 6.52-.67-1.64-1.34-3.26-2.02-4.88-8.94-18.18-25.4-31.96-44.08-39.33-28.28-6.67-57.25-9.84-86.19-11.83-37.65-2.23-75.44-3.08-113.11-.78m274.36 45.42c7.46 19.69 10.79 40.75 11.09 61.76.07 14.65-2.73 29.19-7.24 43.1-2.83 8.7-6.1 17.25-9.64 25.68-.58 1.46-1.61 3.05-.71 4.62 6.06 13.9 9.43 28.76 12.64 43.53a492.39 492.39 0 0 1 8.51 61.16c.89 6.84.35 13.81 1.75 20.6 2.16-7.78 5.95-15 8.25-22.75 16.15-48.73 20.45-100.96 15.57-151.92-1.96-18.78-5.77-37.75-14.72-54.54-6.16-12.11-15.26-22.43-25.5-31.24m-244.12 15.86c-32.45 2.36-64.64 7.84-96.2 15.73l-.68.38c-23.33 5.97-46.17 13.95-68.08 23.95-3.79 1.76-7.57 3.55-11.27 5.5-9.97 5.08-19.6 10.82-28.97 16.92 4.68.25 9.37.11 14.06.15h334c10.12-.13 20.32.26 30.27 2.28 16.09 3.09 31.07 10.95 43.02 22.12 5.65-15.47 9.74-32.01 7.96-48.58-4.8-4.25-10.02-7.99-15.49-11.31-15.4-8.96-32.54-14.53-49.83-18.52-21.99-5.06-44.46-7.64-66.94-9.18-30.57-1.72-61.31-1.93-91.85.56M193.15 375.14c-12.25 7.12-24.03 15.04-35.33 23.59-1.55 1.15-3.08 2.32-4.61 3.49-6.94 5.36-13.66 10.98-20.2 16.82-6.88 6.51-14.15 12.72-20.06 20.16 195.35.13 390.7.01 586.05.06 22.93.14 44.15 16.34 51.88 37.66 3.07 7.65 3.72 15.94 4.73 24.04 1.38 10.58 2.4 21.21 3.55 31.82 5.27 56.24 7.13 112.94 2.48 169.29-.97 15.95-2.63 32.33-9.95 46.81-.06.48-.19 1.45-.25 1.93 2.19-1.62 4.58-2.93 7.02-4.15.13-.18.41-.54.54-.72 28.06-16.41 51.44-40.93 66.35-69.85 5.01-10.21 9.06-20.96 11.25-32.15 2.28-12.58 3.45-25.32 4.76-38.02 4.77-54.56 4.11-109.98-6.85-163.8-4.17-19.61-9.01-39.95-21.61-56.06-2.69 2.59-5.2 5.35-7.57 8.23-11.13 12.57-22.25 25.13-33.35 37.72-2.25 2.82-5.62 4.25-8.97 5.28-4.93.52-10.16-.98-13.54-4.72-4.26-4.01-4.85-10.35-3.76-15.8 1.23-2.42 2.57-4.81 4.43-6.8 11.95-13.11 23.33-26.75 35.38-39.78l-.07-.75c.4-.11 1.18-.32 1.57-.43-9.06-2.86-18.62-2.96-28.02-2.88-6.34 0-12.67-.01-19-.01-12.67.03-25.33.03-38 0-30 .02-60 .05-90 0-10.33.04-20.67.03-31 .01-19.67.01-39.33.03-59-.01-4 .03-8 .03-12 0-2.67.02-5.34.02-8 0-4.33.03-8.67.03-13 .01-24.33 0-48.66.03-72.99 0-16.01-.09-32.01.08-48.01-.01-4.34.03-8.67.03-13 0-7.67.04-15.34.03-23 .01-3.34.01-6.67.01-9.99 0-2.34 0-4.68 0-7.01-.01-33.68.07-67.36-.04-101.03.06-7.56 1.06-14.1 5.59-20.82 8.96m-94.27 95.58c-5.33 1.54-10.56 4.49-13.51 9.34-3.22 8.23-5.18 17.16-4.31 26.04-.29 2.97-1.09 5.88-1.22 8.87-1.09 66.19 2.59 132.5 12.45 197.99.93 6.31 2.84 12.44 5.43 18.26 10.42 22.26 33.41 38.75 58.27 39.24 53.67.11 107.33 0 161 .05 3.71.02 7.51.21 11.08-.98 8.4-2.42 14.9-10.02 16.22-18.63 2.7-20.6 5.38-41.21 8.04-61.81.56-5.5 1.95-10.89 3.98-16.02 6.38-16.17 20.88-28.85 37.83-32.84 13.03-3.34 27.07-1.39 39.08 4.51 15.91 8.12 27.84 23.6 31.42 41.14 4.27 21.24 8.51 42.49 12.81 63.73 2.39 11.36 12.86 20.52 24.55 20.89 55.99.01 111.99 0 167.99 0 9.03.02 17.94-2.3 26.09-6.12 11.64-5.92 21.28-15.52 27.22-27.16a66.313 66.313 0 0 0 6.63-24.4c7.02-71.51 3.4-143.67-5.56-214.83-.48-9.52-5.27-18.84-13.46-23.94-2.49-1.34-5.12-2.39-7.8-3.27-6-.7-12.05-.33-18.07-.41H112.08c-4.4.01-8.82-.16-13.2.35Z"/><path d="M487.97 508.94c5.22-5.63 16.55-3.97 18.69 3.84 9.51 31.39 19.27 62.71 28.47 94.19 9.93-31.65 19.23-63.5 29.09-95.18 2.32-5.94 10.41-7.76 15.72-4.81 4.76 2.25 6.39 8.42 4.53 13.11-12.46 41.39-25.23 82.69-37.81 124.04-1.35 4.45-4.96 8.61-9.75 9.27-2.38.41-4.73-.32-6.97-1.02-1.49-1.33-2.95-2.7-4.36-4.11-.98-2.13-1.76-4.35-2.38-6.6l-.35-.58c-1.78-6.45-3.97-12.77-5.68-19.23l-.36-.64c-7.16-23.79-14.5-47.51-21.7-71.29-3.05-9.66-5.89-19.39-8.94-29.05-1.33-3.92-1.27-8.84 1.8-11.94ZM618.06 507.66c16.1-2.53 33.36-4.19 48.77 2.36 12.66 4.95 23.06 16.01 25.98 29.44 1.89 9.86 1.38 20.45-2.58 29.78-3.63 7.77-9.34 14.82-17.16 18.66.32 1.02.67 2.06 1.05 3.08 1.82 3.61 3.43 7.33 5.18 10.99 4.58 10.29 9.35 20.49 14.02 30.74 1.73 4 4.14 7.92 4.03 12.43-1.42 7.78-11.58 10.8-17.6 6.29-3.47-2.3-4.6-6.48-6.31-10.01-6.88-14.98-13.64-30.01-20.59-44.95-7.69 1.5-15.41 3.1-23.29 3.06.02 14.46.04 28.92-.01 43.38.15 2.85-1.52 5.27-3.27 7.36-2.61 2.08-5.88 3.78-9.31 3.14-2.91-.31-5.17-2.3-7.33-4.06-1.15-2-2.42-4.06-2.25-6.45-.04-41.65-.03-83.31 0-124.96-.24-5.78 5.54-9.52 10.67-10.28m11.51 20.05c.04 16.96-.04 33.93.04 50.9 10.61-.96 21.72-2.28 30.96-8.03 12.06-6.91 15-25.35 5.32-35.46-3.01-2.76-6.41-5.16-10.3-6.47-8.38-3.13-17.38-1.87-26.02-.94Z"/></g></svg>

<?xml version="1.0" encoding="UTF-8" ?>
<!DOCTYPE svg PUBLIC "-//W3C//DTD SVG 1.1//EN" "http://www.w3.org/Graphics/SVG/1.1/DTD/svg11.dtd">
<svg width="980pt" height="980pt" viewBox="0 0 980 980" version="1.1" xmlns="http://www.w3.org/2000/svg">
<g id="#ffffffff">
</g>
<g id="#020202ff">
<path fill="#020202" opacity="1.00" d=" M 547.82 182.87 C 566.16 180.93 584.54 179.40 602.97 178.67 C 639.36 177.86 675.80 178.57 712.07 181.51 C 740.97 183.94 769.83 187.88 797.97 195.05 C 815.59 199.66 832.94 205.58 849.19 213.87 C 857.59 218.15 865.64 223.11 873.19 228.74 C 888.49 240.23 901.31 255.04 910.15 272.03 C 915.26 281.82 919.12 292.23 922.10 302.86 C 926.67 319.53 928.88 336.73 930.14 353.94 C 933.73 416.18 925.29 480.16 898.65 536.96 C 898.02 538.26 897.42 539.57 896.80 540.88 C 896.11 542.21 895.43 543.55 894.74 544.89 C 893.24 547.69 891.75 550.50 890.22 553.28 C 885.95 560.95 881.28 568.39 876.16 575.51 C 874.93 577.08 873.71 578.84 873.76 580.93 C 873.35 593.09 872.06 605.18 871.19 617.31 L 870.82 617.86 C 869.41 633.68 867.71 649.66 862.83 664.86 C 855.37 688.36 842.36 709.85 826.41 728.54 C 793.85 766.45 747.84 793.41 698.05 800.10 C 683.47 802.13 668.74 801.56 654.07 801.64 C 604.04 801.65 554.02 801.64 503.99 801.65 C 494.60 801.89 485.24 799.55 476.92 795.23 C 471.67 792.34 466.78 788.77 462.60 784.48 C 462.03 784.52 460.90 784.59 460.34 784.63 C 460.71 784.07 461.10 783.53 461.50 783.00 C 457.36 779.07 454.44 774.11 451.88 769.06 C 447.59 760.63 446.64 751.11 444.59 742.01 C 441.75 727.66 438.84 713.32 435.96 698.98 C 434.98 693.71 434.09 688.25 431.20 683.62 C 427.22 676.68 420.07 671.63 412.18 670.27 C 404.49 668.64 396.09 671.13 390.45 676.58 C 386.18 680.52 383.74 686.12 382.88 691.80 C 380.54 710.89 377.89 729.95 375.49 749.04 C 374.76 754.84 374.04 760.72 371.91 766.22 C 367.61 778.54 358.48 788.97 347.09 795.26 C 339.37 799.29 330.74 801.70 322.00 801.64 C 267.32 801.64 212.63 801.66 157.95 801.63 C 136.16 801.94 114.66 793.86 97.72 780.29 C 87.84 772.05 79.27 762.18 73.09 750.86 C 68.01 741.50 64.35 731.34 62.50 720.84 C 59.30 701.03 57.10 681.06 54.84 661.12 C 54.01 650.01 52.71 638.93 52.16 627.79 C 51.23 616.55 50.59 605.27 50.22 593.99 C 49.11 578.00 49.54 561.96 48.92 545.95 C 49.14 528.61 49.25 511.24 49.71 493.89 C 50.04 483.29 53.12 472.83 58.68 463.79 C 63.58 453.15 69.79 443.18 76.73 433.76 C 87.49 419.66 99.69 406.71 112.99 394.98 C 136.66 374.26 162.37 355.46 190.79 341.78 C 196.12 339.24 201.70 337.37 207.28 335.48 C 209.48 332.33 212.36 329.75 214.82 326.80 C 225.39 315.01 237.40 304.60 249.70 294.66 C 254.80 290.76 259.93 286.92 265.18 283.22 C 278.06 274.15 291.47 265.85 305.22 258.15 C 309.73 255.66 314.28 253.24 318.88 250.91 C 320.20 250.20 321.53 249.49 322.86 248.78 C 324.18 248.15 325.49 247.50 326.81 246.86 C 328.84 245.87 330.88 244.88 332.91 243.89 C 337.21 241.82 341.53 239.79 345.87 237.79 C 350.94 235.50 356.06 233.34 361.18 231.17 C 363.05 230.39 364.94 229.66 366.82 228.87 C 424.69 205.38 485.88 190.46 547.82 182.87 M 583.88 210.83 C 529.19 214.62 474.93 225.00 422.74 241.87 C 404.63 247.92 386.69 254.50 369.16 262.09 C 355.63 267.98 342.23 274.20 329.22 281.17 C 309.96 291.37 291.37 302.84 273.82 315.76 C 265.89 321.67 258.37 328.09 250.79 334.44 C 255.48 334.94 260.20 334.67 264.91 334.74 C 296.58 334.68 328.25 334.86 359.91 334.65 C 363.03 332.62 365.29 329.42 368.27 327.14 C 383.09 313.84 399.71 302.70 417.14 293.11 C 426.80 287.91 436.70 283.16 446.80 278.88 C 456.34 274.83 466.05 271.20 475.86 267.87 C 500.63 259.46 526.13 253.25 551.88 248.67 C 588.52 242.24 625.72 238.87 662.94 239.17 C 707.96 239.22 753.54 242.26 796.96 254.95 C 802.98 256.83 808.98 258.78 814.84 261.13 C 819.71 263.16 824.64 265.10 829.28 267.65 C 828.61 266.01 827.94 264.39 827.26 262.77 C 818.32 244.59 801.86 230.81 783.18 223.44 C 754.90 216.77 725.93 213.60 696.99 211.61 C 659.34 209.38 621.55 208.53 583.88 210.83 M 858.24 256.25 C 865.70 275.94 869.03 297.00 869.33 318.01 C 869.40 332.66 866.60 347.20 862.09 361.11 C 859.26 369.81 855.99 378.36 852.45 386.79 C 851.87 388.25 850.84 389.84 851.74 391.41 C 857.80 405.31 861.17 420.17 864.38 434.94 C 868.50 455.12 871.33 475.57 872.89 496.10 C 873.78 502.94 873.24 509.91 874.64 516.70 C 876.80 508.92 880.59 501.70 882.89 493.95 C 899.04 445.22 903.34 392.99 898.46 342.03 C 896.50 323.25 892.69 304.28 883.74 287.49 C 877.58 275.38 868.48 265.06 858.24 256.25 M 614.12 272.11 C 581.67 274.47 549.48 279.95 517.92 287.84 L 517.24 288.22 C 493.91 294.19 471.07 302.17 449.16 312.17 C 445.37 313.93 441.59 315.72 437.89 317.67 C 427.92 322.75 418.29 328.49 408.92 334.59 C 413.60 334.84 418.29 334.70 422.98 334.74 C 534.31 334.74 645.65 334.74 756.98 334.74 C 767.10 334.61 777.30 335.00 787.25 337.02 C 803.34 340.11 818.32 347.97 830.27 359.14 C 835.92 343.67 840.01 327.13 838.23 310.56 C 833.43 306.31 828.21 302.57 822.74 299.25 C 807.34 290.29 790.20 284.72 772.91 280.73 C 750.92 275.67 728.45 273.09 705.97 271.55 C 675.40 269.83 644.66 269.62 614.12 272.11 M 193.15 375.14 C 180.90 382.26 169.12 390.18 157.82 398.73 C 156.27 399.88 154.74 401.05 153.21 402.22 C 146.27 407.58 139.55 413.20 133.01 419.04 C 126.13 425.55 118.86 431.76 112.95 439.20 C 308.30 439.33 503.65 439.21 699.00 439.26 C 721.93 439.40 743.15 455.60 750.88 476.92 C 753.95 484.57 754.60 492.86 755.61 500.96 C 756.99 511.54 758.01 522.17 759.16 532.78 C 764.43 589.02 766.29 645.72 761.64 702.07 C 760.67 718.02 759.01 734.40 751.69 748.88 C 751.63 749.36 751.50 750.33 751.44 750.81 C 753.63 749.19 756.02 747.88 758.46 746.66 C 758.59 746.48 758.87 746.12 759.00 745.94 C 787.06 729.53 810.44 705.01 825.35 676.09 C 830.36 665.88 834.41 655.13 836.60 643.94 C 838.88 631.36 840.05 618.62 841.36 605.92 C 846.13 551.36 845.47 495.94 834.51 442.12 C 830.34 422.51 825.50 402.17 812.90 386.06 C 810.21 388.65 807.70 391.41 805.33 394.29 C 794.20 406.86 783.08 419.42 771.98 432.01 C 769.73 434.83 766.36 436.26 763.01 437.29 C 758.08 437.81 752.85 436.31 749.47 432.57 C 745.21 428.56 744.62 422.22 745.71 416.77 C 746.94 414.35 748.28 411.96 750.14 409.97 C 762.09 396.86 773.47 383.22 785.52 370.19 L 785.45 369.44 C 785.85 369.33 786.63 369.12 787.02 369.01 C 777.96 366.15 768.40 366.05 759.00 366.13 C 752.66 366.13 746.33 366.12 740.00 366.12 C 727.33 366.15 714.67 366.15 702.00 366.12 C 672.00 366.14 642.00 366.17 612.00 366.12 C 601.67 366.16 591.33 366.15 581.00 366.13 C 561.33 366.14 541.67 366.16 522.00 366.12 C 518.00 366.15 514.00 366.15 510.00 366.12 C 507.33 366.14 504.66 366.14 502.00 366.12 C 497.67 366.15 493.33 366.15 489.00 366.13 C 464.67 366.13 440.34 366.16 416.01 366.13 C 400.00 366.04 384.00 366.21 368.00 366.12 C 363.66 366.15 359.33 366.15 355.00 366.12 C 347.33 366.16 339.66 366.15 332.00 366.13 C 328.66 366.14 325.33 366.14 322.01 366.13 C 319.67 366.13 317.33 366.13 315.00 366.12 C 281.32 366.19 247.64 366.08 213.97 366.18 C 206.41 367.24 199.87 371.77 193.15 375.14 M 98.88 470.72 C 93.55 472.26 88.32 475.21 85.37 480.06 C 82.15 488.29 80.19 497.22 81.06 506.10 C 80.77 509.07 79.97 511.98 79.84 514.97 C 78.75 581.16 82.43 647.47 92.29 712.96 C 93.22 719.27 95.13 725.40 97.72 731.22 C 108.14 753.48 131.13 769.97 155.99 770.46 C 209.66 770.57 263.32 770.46 316.99 770.51 C 320.70 770.53 324.50 770.72 328.07 769.53 C 336.47 767.11 342.97 759.51 344.29 750.90 C 346.99 730.30 349.67 709.69 352.33 689.09 C 352.89 683.59 354.28 678.20 356.31 673.07 C 362.69 656.90 377.19 644.22 394.14 640.23 C 407.17 636.89 421.21 638.84 433.22 644.74 C 449.13 652.86 461.06 668.34 464.64 685.88 C 468.91 707.12 473.15 728.37 477.45 749.61 C 479.84 760.97 490.31 770.13 502.00 770.50 C 557.99 770.51 613.99 770.50 669.99 770.50 C 679.02 770.52 687.93 768.20 696.08 764.38 C 707.72 758.46 717.36 748.86 723.30 737.22 C 727.05 729.60 729.31 721.29 729.93 712.82 C 736.95 641.31 733.33 569.15 724.37 497.99 C 723.89 488.47 719.10 479.15 710.91 474.05 C 708.42 472.71 705.79 471.66 703.11 470.78 C 697.11 470.08 691.06 470.45 685.04 470.37 C 494.06 470.37 303.07 470.37 112.08 470.37 C 107.68 470.38 103.26 470.21 98.88 470.72 Z" />
<path fill="#020202" opacity="1.00" d=" M 487.97 508.94 C 493.19 503.31 504.52 504.97 506.66 512.78 C 516.17 544.17 525.93 575.49 535.13 606.97 C 545.06 575.32 554.36 543.47 564.22 511.79 C 566.54 505.85 574.63 504.03 579.94 506.98 C 584.70 509.23 586.33 515.40 584.47 520.09 C 572.01 561.48 559.24 602.78 546.66 644.13 C 545.31 648.58 541.70 652.74 536.91 653.40 C 534.53 653.81 532.18 653.08 529.94 652.38 C 528.45 651.05 526.99 649.68 525.58 648.27 C 524.60 646.14 523.82 643.92 523.20 641.67 L 522.85 641.09 C 521.07 634.64 518.88 628.32 517.17 621.86 L 516.81 621.22 C 509.65 597.43 502.31 573.71 495.11 549.93 C 492.06 540.27 489.22 530.54 486.17 520.88 C 484.84 516.96 484.90 512.04 487.97 508.94 Z" />
<path fill="#020202" opacity="1.00" d=" M 618.06 507.66 C 634.16 505.13 651.42 503.47 666.83 510.02 C 679.49 514.97 689.89 526.03 692.81 539.46 C 694.70 549.32 694.19 559.91 690.23 569.24 C 686.60 577.01 680.89 584.06 673.07 587.90 C 673.39 588.92 673.74 589.96 674.12 590.98 C 675.94 594.59 677.55 598.31 679.30 601.97 C 683.88 612.26 688.65 622.46 693.32 632.71 C 695.05 636.71 697.46 640.63 697.35 645.14 C 695.93 652.92 685.77 655.94 679.75 651.43 C 676.28 649.13 675.15 644.95 673.44 641.42 C 666.56 626.44 659.80 611.41 652.85 596.47 C 645.16 597.97 637.44 599.57 629.56 599.53 C 629.58 613.99 629.60 628.45 629.55 642.91 C 629.70 645.76 628.03 648.18 626.28 650.27 C 623.67 652.35 620.40 654.05 616.97 653.41 C 614.06 653.10 611.80 651.11 609.64 649.35 C 608.49 647.35 607.22 645.29 607.39 642.90 C 607.35 601.25 607.36 559.59 607.39 517.94 C 607.15 512.16 612.93 508.42 618.06 507.66 M 629.57 527.71 C 629.61 544.67 629.53 561.64 629.61 578.61 C 640.22 577.65 651.33 576.33 660.57 570.58 C 672.63 563.67 675.57 545.23 665.89 535.12 C 662.88 532.36 659.48 529.96 655.59 528.65 C 647.21 525.52 638.21 526.78 629.57 527.71 Z" />
</g>
</svg>
